assets/images/avatar/Avatar 18.svg

<svg fill="none" height="128" viewBox="0 0 128 128" width="128" xmlns="http://www.w3.org/2000/svg" xmlns:xlink="http://www.w3.org/1999/xlink"><mask id="a" height="110" maskUnits="userSpaceOnUse" width="118" x="5" y="9"><path clip-rule="evenodd" d="m66.0029 10.5873c17.3309-.71228 37.3091-4.72405 48.7591 8.2833 11.764 13.3641 7.018 33.2786 3.106 50.6357-3.934 17.452-8.647 36.5577-24.5971 44.7087-16.2683 8.314-35.436 2.453-51.803-5.666-16.0568-7.964-30.9175-19.8659-34.86959-37.3247-3.94356-17.4214 2.92277-35.7737 15.43229-48.5427 11.1841-11.4162 27.9902-11.4375 43.9723-12.0943z" fill="#eff6f7" fill-rule="evenodd"/></mask><g mask="url(#a)"><path clip-rule="evenodd" d="m66.0029 10.5873c17.3309-.71228 37.3091-4.72405 48.7591 8.2833 11.764 13.3641 7.018 33.2786 3.106 50.6357-3.934 17.452-8.647 36.5577-24.5971 44.7087-16.2683 8.314-35.436 2.453-51.803-5.666-16.0568-7.964-30.9175-19.8659-34.86959-37.3247-3.94356-17.4214 2.92277-35.7737 15.43229-48.5427 11.1841-11.4162 27.9902-11.4375 43.9723-12.0943z" fill="#eff6f7" fill-rule="evenodd"/><path d="m95.1864 34.6149c-5.2846-14.528-17.6763-18.4716-26.6606-18.4625-5.3608 0-15.2016 2.1943-22.8115 11.3981-9.8377 11.8857-17.3226 48.2042-2.1028 62.1257 11.4103 10.4378 44.3855 5.3333 50.1516 2.6392 16.6639-7.7866 13.7749-23.7226 1.4233-57.7005z" fill="#28213d"/><path d="m79.0492 61.3394c0 8.5333-5.0195 18.0724 2.5782 25.0941 4.4008 4.0655 12.4313 4.4678 18.7426 6.6682 10.006 3.4834 14.126 14.7903 16.177 25.0333h-99.1755c2.24-8.229 6.5889-16.265 12.5318-21.3975 5.6655-4.8762 14.6286-4.8762 20.3611-11.3463 3.1208-3.5261 2.9745-14.6621 1.5238-27.3859-1.2617-11.008 27.261-11.5047 27.261 3.3341z" fill="#cc86d9"/><path d="m61.1353 88.6217c7.1405.6096 13.9459-1.92 17.6579-5.8971-.0153-.0305-.0244-.0701-.0396-.1036-1.8865-3.8674-1.408-8.2073-.7162-12.5898-4.1052 2.8069-10.4564 5.0378-15.2991 4.9128-4.5958-.1219-8.0304-1.8499-9.9139-3.5352.1372 5.5497-.2865 10.0571-1.6152 12.6202-.0153.0305-.0275.0762-.0427.1036 1.4446 2.0175 4.2636 4.0137 9.9688 4.4891z" fill="#e7baef"/><path d="m96.3505 118.135h-66.4381c1.5756-6.004 5.7905-13.525 8.8381-17.707 3.7029-5.0711 8.9966-11.7179 11.8553-15.4238.22-.2703.412-.5624.5729-.8716 1.4446 2.0175 4.2667 4.0137 9.9688 4.4891 7.1405.6095 13.9459-1.92 17.6579-5.8971.4359.8754.9773 1.6942 1.6122 2.4381 1.1824 3.4042 3.4255 7.5215 5.0255 10.304 3.8217 6.6713 8.4053 14.9793 10.9074 22.6683z" fill="#e7baef"/><path d="m52.2484 62.4274c.9143 9.5818.9509 17.8317-1.0727 21.6595 7.1527 1.3958 18.7459-.4419 26.2887-6.6011-.3291-5.181 1.5665-10.8191 1.5848-16.0732-8.4389.5029-17.9901.7131-26.8008 1.0148z" fill="#353154" opacity=".2"/><path d="m44.6751 44.6293c.4906 6.4336-1.1002 7.0766-1.0636 12.2545.0579 8.195 10.0175 20.864 15.1283 21.245 10.5143.7863 19.0416-6.5555 21.6381-11.0355 2.5448-4.3794 4.0016-10.3619 3.2823-15.6434-.6095-4.4769-.1127-11.2762-.6887-14.147-.6857-3.4134-4.16-11.3585-8.6979-13.1261-4.7269-1.8286-11.1299-2.4381-18.1943.2682-3.9558 1.5085-12.4526 6.2232-11.4042 20.1843z" fill="#cc86d9"/><path d="m48.4724 27.264c7.5246-7.7714 19.7608-9.5146 28.8213-4.9767 3.6206 1.8285 7.2473 6.6041 8.5334 12.294 1.0453 4.6324 1.4568 9.6518-.2408 14.8389-3.6571-1.1429-8.2804-2.5265-12.4769-3.2457-.3186-1.7926-.3751-3.622-.1677-5.4309-.8716.7132-1.8285 3.3524-1.9504 5.3608-4.2301-.4602-10.2949-1.1276-14.4976-1.0027-.4297-3.0049-.1005-5.9154-.1493-8.9417-1.8286 2.5539-2.5356 6.6408-2.3863 9.4293.1128-.5881-6.9729.2378-10.7185 1.082.0823-.0031-1.8255-12.1174 5.2328-19.4073z" fill="#28213d"/><path d="m82.3619 50.5935c.0274-.0975 1.0088-1.4354 1.405-1.984.768-1.0636 2.947-2.6179 4.3824-.8046 1.1307 1.4263-.3413 4.6934-2.2125 7.5185-1.7402 2.621-4.8762 4.5715-5.4644 4.6019-.5882.0305 1.5756-8.1341 1.8895-9.3318z" fill="#cc86d9"/></g></svg>

<svg width="128" height="128" viewBox="0 0 128 128" fill="none" xmlns="http://www.w3.org/2000/svg">
<mask id="mask0_457_1639" style="mask-type:alpha" maskUnits="userSpaceOnUse" x="5" y="9" width="118" height="110">
<path fill-rule="evenodd" clip-rule="evenodd" d="M66.0029 10.5873C83.3338 9.87502 103.312 5.86325 114.762 18.8706C126.526 32.2347 121.78 52.1492 117.868 69.5063C113.934 86.9583 109.221 106.064 93.2709 114.215C77.0026 122.529 57.8349 116.668 41.4679 108.549C25.4111 100.585 10.5504 88.6831 6.59831 71.2243C2.65475 53.8029 9.52108 35.4506 22.0306 22.6816C33.2147 11.2654 50.0208 11.2441 66.0029 10.5873Z" fill="#EFF6F7"/>
</mask>
<g mask="url(#mask0_457_1639)">
<path fill-rule="evenodd" clip-rule="evenodd" d="M66.0029 10.5873C83.3338 9.87502 103.312 5.86325 114.762 18.8706C126.526 32.2347 121.78 52.1492 117.868 69.5063C113.934 86.9583 109.221 106.064 93.2709 114.215C77.0026 122.529 57.8349 116.668 41.4679 108.549C25.4111 100.585 10.5504 88.6831 6.59831 71.2243C2.65475 53.8029 9.52108 35.4506 22.0306 22.6816C33.2147 11.2654 50.0208 11.2441 66.0029 10.5873Z" fill="#EFF6F7"/>
<path d="M95.1864 34.6149C89.9018 20.0869 77.5101 16.1433 68.5258 16.1524C63.165 16.1524 53.3242 18.3467 45.7143 27.5505C35.8766 39.4362 28.3917 75.7547 43.6115 89.6762C55.0218 100.114 87.997 95.0095 93.7631 92.3154C110.427 84.5288 107.538 68.5928 95.1864 34.6149Z" fill="#28213D"/>
<path d="M79.0492 61.3394C79.0492 69.8727 74.0297 79.4118 81.6274 86.4335C86.0282 90.499 94.0587 90.9013 100.37 93.1017C110.376 96.5851 114.496 107.892 116.547 118.135H17.3715C19.6115 109.906 23.9604 101.87 29.9033 96.7375C35.5688 91.8613 44.5319 91.8613 50.2644 85.3912C53.3852 81.8651 53.2389 70.7291 51.7882 58.0053C50.5265 46.9973 79.0492 46.5006 79.0492 61.3394Z" fill="#CC86D9"/>
<path d="M61.1353 88.6217C68.2758 89.2313 75.0812 86.7017 78.7932 82.7246C78.7779 82.6941 78.7688 82.6545 78.7536 82.621C76.8671 78.7536 77.3456 74.4137 78.0374 70.0312C73.9322 72.8381 67.581 75.069 62.7383 74.944C58.1425 74.8221 54.7079 73.0941 52.8244 71.4088C52.9616 76.9585 52.5379 81.4659 51.2092 84.029C51.1939 84.0595 51.1817 84.1052 51.1665 84.1326C52.6111 86.1501 55.4301 88.1463 61.1353 88.6217Z" fill="#E7BAEF"/>
<path d="M96.3505 118.135H29.9124C31.488 112.131 35.7029 104.61 38.7505 100.428C42.4534 95.3569 47.7471 88.7101 50.6058 85.0042C50.8258 84.7339 51.0178 84.4418 51.1787 84.1326C52.6233 86.1501 55.4454 88.1463 61.1475 88.6217C68.288 89.2312 75.0934 86.7017 78.8054 82.7246C79.2413 83.6 79.7827 84.4188 80.4176 85.1627C81.6 88.5669 83.8431 92.6842 85.4431 95.4667C89.2648 102.138 93.8484 110.446 96.3505 118.135Z" fill="#E7BAEF"/>
<g style="mix-blend-mode:multiply" opacity="0.2">
<path d="M52.2484 62.4274C53.1627 72.0092 53.1993 80.2591 51.1757 84.0869C58.3284 85.4827 69.9216 83.645 77.4644 77.4858C77.1353 72.3048 79.0309 66.6667 79.0492 61.4126C70.6103 61.9155 61.0591 62.1257 52.2484 62.4274Z" fill="#353154"/>
</g>
<path d="M44.6751 44.6293C45.1657 51.0629 43.5749 51.7059 43.6115 56.8838C43.6694 65.0788 53.629 77.7478 58.7398 78.1288C69.2541 78.9151 77.7814 71.5733 80.3779 67.0933C82.9227 62.7139 84.3795 56.7314 83.6602 51.4499C83.0507 46.973 83.5475 40.1737 82.9715 37.3029C82.2858 33.8895 78.8115 25.9444 74.2736 24.1768C69.5467 22.3482 63.1437 21.7387 56.0793 24.445C52.1235 25.9535 43.6267 30.6682 44.6751 44.6293Z" fill="#CC86D9"/>
<path d="M48.4724 27.264C55.997 19.4926 68.2332 17.7494 77.2937 22.2873C80.9143 24.1158 84.541 28.8914 85.8271 34.5813C86.8724 39.2137 87.2839 44.2331 85.5863 49.4202C81.9292 48.2773 77.3059 46.8937 73.1094 46.1745C72.7908 44.3819 72.7343 42.5525 72.9417 40.7436C72.0701 41.4568 71.1132 44.096 70.9913 46.1044C66.7612 45.6442 60.6964 44.9768 56.4937 45.1017C56.064 42.0968 56.3932 39.1863 56.3444 36.16C54.5158 38.7139 53.8088 42.8008 53.9581 45.5893C54.0709 45.0012 46.9852 45.8271 43.2396 46.6713C43.3219 46.6682 41.4141 34.5539 48.4724 27.264Z" fill="#28213D"/>
<path d="M82.3619 50.5935C82.3893 50.496 83.3707 49.1581 83.7669 48.6095C84.5349 47.5459 86.7139 45.9916 88.1493 47.8049C89.28 49.2312 87.808 52.4983 85.9368 55.3234C84.1966 57.9444 81.0606 59.8949 80.4724 59.9253C79.8842 59.9558 82.048 51.7912 82.3619 50.5935Z" fill="#CC86D9"/>
</g>
</svg>
